launcher/android/assets/skins/day/svg/earth.svg

<svg enable-background="new 0 0 220.00 220.00" height="220" viewBox="0 0 220 220" width="220" xmlns="http://www.w3.org/2000/svg" xmlns:xlink="http://www.w3.org/1999/xlink"><radialGradient id="a" cx="138.555" cy="89.7021" gradientTransform="matrix(0 -1 1 0 48.853272 228.257568)" gradientUnits="userSpaceOnUse" r="104.227"><stop offset="0" stop-color="#fffdfd"/><stop offset=".731481" stop-color="#fff"/><stop offset=".805556" stop-color="#ffb600"/><stop offset=".925926" stop-color="#ffb600"/><stop offset="1" stop-color="#ffe45c"/></radialGradient><linearGradient id="b"><stop offset="0" stop-color="#fffdfd"/><stop offset=".606481" stop-color="#fff"/><stop offset=".699074" stop-color="#ffb600"/><stop offset=".925926" stop-color="#ffb600"/><stop offset="1" stop-color="#ffe45c"/></linearGradient><radialGradient id="c" cx="115.467" cy="108.387" gradientUnits="userSpaceOnUse" r="70.3325" xlink:href="#b"/><radialGradient id="d" cx="131.019" cy="91.4152" gradientUnits="userSpaceOnUse" r="59.875" xlink:href="#b"/><g stroke-linejoin="bevel"><ellipse cx="111.103" cy="111.232" fill="#a0d4e0" rx="95.6665" ry="96" stroke="#000" stroke-width="5"/><path d="m197.644 116.024-5.25 3-2.5 2.25-.75 9 1.75 7-1.25 4.25-3 3.25-2 4.75-3.25 3-2.75 1.75-7.25.5-2.75-3-6.25-2.75-8.75-.75-5-2.5-6.25-.25-6.75 2.75-4 2.75-2 6 1 5.25 2 3.75-1.5 3.75-3.25 2-1.75 4.75 1.25 8.25 2.25 3.5-1.75 3.75-2.5 3.25-2.75 4.5.75 4.5.209.862c44.52-6.793 78.958-44.378 81.064-90.428l-1.523.066z" fill="#205910" stroke-width=".2"/><path d="m75.1442 36.2739.5001-8.0001-2.549-4.2695c-31.9776 14.7934-54.434 46.7732-55.6108 84.1397l4.6597.63 5.5-.75 4.25-3.5 2.25-3.5 2-4.7501 3-2.25.75-6.5 2-6 3.75-3.5 3.5-.75 3.25 1.5 3.25 2.75 5.75.5 6.25-.5 2.25-4.5 5-3.75 3.5-5.25 2.5-6.5-.5-8-1.5-4.75-3.75-4.5z" fill="#205910" stroke-width=".2"/><path d="m132.858 106.273-.667.475-5.429 1.794-37.6989 24.607-3.2674-16.704-1.8599-21.4883 1.2064-16.1482 3.3175-19.2244 6.9368-15.123 8.4445-16.1482 9.651-12.8162 2.53 2.3407 13.983 88.4716z" fill="url(#a)" stroke="#000" stroke-width="5"/><path d="m115.019 98.0654 90.896 12.2096c-1.041-50.0782-40.295-90.7291-89.684-93.7761z" fill="url(#c)" stroke="#000" stroke-width="5"/><path d="m114.857 96.1383-.463.5523-1.75 4.5004-23.9997 31.249 16.2917 2.709 20.958 1.542 15.75-1 18.75-2.75 14.75-5.75 15.75-7 12.5-8-2.283-2.097-86.289-11.5914z" fill="url(#d)" stroke="#000" stroke-width="5"/></g><path d="m203.343 30.1893h-5.6v15.96h-4.481v-15.96h-5.599v-3.64h15.68z" stroke-linejoin="round" stroke-width=".2"/><path d="m228.262 46.1493h-4.48v-11.7294c0-1.266.057-2.6644.171-4.1957h-.109c-.228 1.2046-.433 2.0708-.617 2.5989l-4.594 13.3262h-3.609l-4.677-13.1907c-.128-.3557-.334-1.2672-.617-2.7344h-.123c.117 1.9339.175 3.6298.175 5.0882v10.8369h-3.92v-19.6h6.41l4.003 11.62c.321.9274.554 1.8609.7 2.7999h.083c.245-1.0849.505-2.0284.779-2.8305l4.003-11.5894h6.422z" stroke-linejoin="round" stroke-width=".2"/></svg>

﻿<?xml version="1.0" encoding="utf-8"?>
<!DOCTYPE svg PUBLIC "-//W3C//DTD SVG 1.1//EN" "http://www.w3.org/Graphics/SVG/1.1/DTD/svg11.dtd">
<svg xmlns="http://www.w3.org/2000/svg" xmlns:xlink="http://www.w3.org/1999/xlink" version="1.1" baseProfile="full" width="220" height="220" viewBox="0 0 220.00 220.00" enable-background="new 0 0 220.00 220.00" xml:space="preserve">
	<ellipse fill="#A0D4E0" fill-opacity="1" stroke-width="5" stroke-linejoin="bevel" stroke="#000000" stroke-opacity="1" cx="111.103" cy="111.232" rx="95.6665" ry="96"/>
	<path fill="#205910" fill-opacity="1" stroke-width="0.2" stroke-linejoin="bevel" d="M 197.644,116.024L 192.394,119.024L 189.894,121.274L 189.144,130.274L 190.894,137.274L 189.644,141.524L 186.644,144.774L 184.644,149.524L 181.394,152.524L 178.644,154.274L 171.394,154.774L 168.644,151.774L 162.394,149.024L 153.644,148.274L 148.644,145.774L 142.394,145.524L 135.644,148.274L 131.644,151.024L 129.644,157.024L 130.644,162.274L 132.644,166.024L 131.144,169.774L 127.894,171.774L 126.144,176.524L 127.394,184.774L 129.644,188.274L 127.894,192.024L 125.394,195.274L 122.644,199.774L 123.394,204.274L 123.603,205.136C 168.123,198.343 202.561,160.758 204.667,114.708L 203.144,114.774L 197.644,116.024 Z "/>
	<path fill="#205910" fill-opacity="1" stroke-width="0.2" stroke-linejoin="bevel" d="M 75.1442,36.2739L 75.6443,28.2738L 73.0953,24.0043C 41.1177,38.7977 18.6613,70.7775 17.4845,108.144L 22.1442,108.774L 27.6442,108.024L 31.8942,104.524L 34.1442,101.024L 36.1442,96.2739L 39.1442,94.0239L 39.8942,87.5239L 41.8942,81.5239L 45.6442,78.0239L 49.1442,77.2739L 52.3942,78.7739L 55.6442,81.5239L 61.3942,82.0239L 67.6442,81.5239L 69.8942,77.0239L 74.8942,73.2739L 78.3942,68.0239L 80.8942,61.5239L 80.3942,53.5239L 78.8942,48.7739L 75.1442,44.2739L 75.1442,36.2739 Z "/>
	<radialGradient id="SVGID_Fill1_" cx="138.555" cy="89.7021" r="104.227" gradientUnits="userSpaceOnUse" gradientTransform="rotate(-90.000000 138.555420 89.702148)">
		<stop offset="0" stop-color="#FFFDFD" stop-opacity="1"/>
		<stop offset="0.731481" stop-color="#FFFFFF" stop-opacity="1"/>
		<stop offset="0.805556" stop-color="#FFB600" stop-opacity="1"/>
		<stop offset="0.925926" stop-color="#FFB600" stop-opacity="1"/>
		<stop offset="1" stop-color="#FFE45C" stop-opacity="1"/>
	</radialGradient>
	<path fill="url(#SVGID_Fill1_)" stroke-width="5" stroke-linejoin="bevel" stroke="#000000" stroke-opacity="1" d="M 132.858,106.273L 132.191,106.748L 126.762,108.542L 89.0631,133.149L 85.7957,116.445L 83.9358,94.9567L 85.1422,78.8085L 88.4597,59.5841L 95.3965,44.4611L 103.841,28.3129L 113.492,15.4967L 116.022,17.8374L 130.005,106.309L 132.858,106.273 Z "/>
	<radialGradient id="SVGID_Fill2_" cx="115.467" cy="108.387" r="70.3325" gradientUnits="userSpaceOnUse">
		<stop offset="0" stop-color="#FFFDFD" stop-opacity="1"/>
		<stop offset="0.606481" stop-color="#FFFFFF" stop-opacity="1"/>
		<stop offset="0.699074" stop-color="#FFB600" stop-opacity="1"/>
		<stop offset="0.925926" stop-color="#FFB600" stop-opacity="1"/>
		<stop offset="1" stop-color="#FFE45C" stop-opacity="1"/>
	</radialGradient>
	<path fill="url(#SVGID_Fill2_)" stroke-width="5" stroke-linejoin="bevel" stroke="#000000" stroke-opacity="1" d="M 115.019,98.0654L 205.915,110.275C 204.874,60.1968 165.62,19.5459 116.231,16.4989L 115.019,98.0654 Z "/>
	<radialGradient id="SVGID_Fill3_" cx="131.019" cy="91.4152" r="59.875" gradientUnits="userSpaceOnUse">
		<stop offset="0" stop-color="#FFFDFD" stop-opacity="1"/>
		<stop offset="0.606481" stop-color="#FFFFFF" stop-opacity="1"/>
		<stop offset="0.699074" stop-color="#FFB600" stop-opacity="1"/>
		<stop offset="0.925926" stop-color="#FFB600" stop-opacity="1"/>
		<stop offset="1" stop-color="#FFE45C" stop-opacity="1"/>
	</radialGradient>
	<path fill="url(#SVGID_Fill3_)" stroke-width="5" stroke-linejoin="bevel" stroke="#000000" stroke-opacity="1" d="M 114.857,96.1383L 114.394,96.6906L 112.644,101.191L 88.6443,132.44L 104.936,135.149L 125.894,136.691L 141.644,135.691L 160.394,132.941L 175.144,127.191L 190.894,120.191L 203.394,112.191L 201.111,110.094L 114.822,98.5026L 114.857,96.1383 Z "/>
	<g>
		<path fill="#000000" fill-opacity="1" stroke-width="0.2" stroke-linejoin="round" d="M 203.343,30.1893L 197.743,30.1893L 197.743,46.1493L 193.262,46.1493L 193.262,30.1893L 187.663,30.1893L 187.663,26.5493L 203.343,26.5493L 203.343,30.1893 Z "/>
		<path fill="#000000" fill-opacity="1" stroke-width="0.2" stroke-linejoin="round" d="M 228.262,46.1493L 223.782,46.1493L 223.782,34.4199C 223.782,33.1539 223.839,31.7555 223.953,30.2242L 223.844,30.2242C 223.616,31.4288 223.411,32.295 223.227,32.8231L 218.633,46.1493L 215.024,46.1493L 210.347,32.9586C 210.219,32.6029 210.013,31.6914 209.73,30.2242L 209.607,30.2242C 209.724,32.1581 209.782,33.854 209.782,35.3124L 209.782,46.1493L 205.862,46.1493L 205.862,26.5493L 212.272,26.5493L 216.275,38.1693C 216.596,39.0967 216.829,40.0302 216.975,40.9692L 217.058,40.9692C 217.303,39.8843 217.563,38.9408 217.837,38.1387L 221.84,26.5493L 228.262,26.5493L 228.262,46.1493 Z "/>
	</g>
</svg>
